X:1
T:Title
%%score 1 2
L:1/8
Q:1/4=103
M:6/8
K:C
V:1 treble nm="Grand Piano, Soprano"
V:2 bass nm="Choir Pad, Light Along the Way, Hewitt"
V:1
 [EG] [Ec]2 [EB] [EA]2 | [CE] [EG]2 [_E^F] [D=F]2 | [FB] [Fd]2 [FB] [FA]2 | %3
w: By~Joseph~Lincoln~Hall * * *|||
 [FB] [Ec]2- [Ec]2- [Ec]/ z/ | [Ec] [Fc]2 [FA] [Fc]2 | [FA] [FA]2 [EG] [EG]2 | %6
w: |||
 [_EA] [DB]2 [Gd] [^FB]2 | [^FA] [DG]2- [DG]2- [DG]/ z/ | [DG] [FB]2 [FA] [DG]2 | %9
w: |||
 D [CF]2 [CE] [CE]2 | [EG] [^FA]2 [FA] [FB]2 | [^Fc] [=FB]2- [FB]2- [FB]/ z/ | %12
w: |||
 [FG] [Ee]2 [Fd] [Ec]2 | [EG] [GB]2 [FA] [Fc]2 | [FA] [EG]2 [Ec] [Fc]2 | %15
w: |||
 [FB] [Ec]2- [Ec]2- [Ec]/ z/ | [EG] [EG]2 [CE] [EG]2 | [Ec] [Ge]2- [Ge]2- [Ge]/ z/ | %18
w: |||
 [Gc] [Fc]2 [FA] [Fc]2 | [FA] [EG]2- [EG]2- [EG]/ z/ | [EG] [FB]2 [FA] [DF]2 | %21
w: |||
 [FB] [EA]2 [EG] [Ec]2 | [Ec] [Fd]2 [FA] [FB]2 | [Fc] [Fd]2- [Fd]2- [Fd]/ z/ | %24
w: |||
 [EG] [EG]2 [CE] [EG]2 | [Ec] [Ge]2- [Ge]2- [Ge]/ z/ | [Gc] [Fc]2 [FA] [Fc]2 | %27
w: |||
 [FA] [EG]2- [EG]2- [EG]/ z/ | [EG] [FB]2 [FA] [DF]2 | [FB] [EA]2 [EG] [Ec]2 | %30
w: |||
 [Ec] [Fd]2 [FA] [FB]2 | [FG] [Ec]2- [Ec]3- | [Ec]3 z3 |] %33
w: |||
V:2
 [C,C] [C,G,]2 [C,G,] [C,G,]2 | [C,G,] G,2 [G,A,] [G,B,]2 | [G,D] [G,B,]2 [G,D] [G,C]2 | %3
 [G,D] [C,C]2- [C,C]2- [C,C]/ z/ | [C,G,] [F,A,]2 [F,C] [F,A,]2 | [F,C] [C,C]2 [C,C] [C,C]2 | %6
 [C,G,] [D,G,]2 [D,B,] [D,D]2 | [D,C] [G,B,]2- [G,B,]2- [G,B,]/ z/ | [G,B,] [G,D]2 [G,C] [G,B,]2 | %9
 [G,B,] [C,A,]2 [C,G,] [C,G,]2 | [E,C] [D,C]2 [D,C] [D,C]2 | [D,C] [G,D]2- [G,D]2- [G,D]/ z/ | %12
 [G,B,] [C,C]2 [D,B,] [E,C]2 | [C,C] [F,C]2 [F,C] [F,A,]2 | [F,C] [G,D]2 [G,D] [G,D]2 | %15
 [G,D] [C,C]2- [C,C]2- [C,C]/ z/ | [C,C] [C,C]2 [C,G,] [C,C]2 | [C,G,] [C,C]2- [C,C]2- [C,C]/ z/ | %18
 [E,_B,] [F,A,]2 [F,C] [F,A,]2 | [F,C] [C,C]2- [C,C]2- [C,C]/ z/ | [C,C] [G,D]2 [G,C] [G,B,]2 | %21
 [G,D] [C,C]2 [C,C] [C,G,]2 | [C,C] [D,C]2 [D,C] [D,C]2 | [D,C] [G,B,]2- [G,B,]2- [G,B,]/ z/ | %24
 [C,C] [C,C]2 [C,G,] [C,C]2 | [C,G,] [C,C]2- [C,C]2- [C,C]/ z/ | [E,_B,] [F,A,]2 [F,C] [F,A,]2 | %27
 [F,C] [C,C]2- [C,C]2- [C,C]/ z/ | [C,C] [G,D]2 [G,C] [G,B,]2 | [G,D] [C,C]2 [C,C] [C,G,]2 | %30
 [C,C] [F,A,]2 [F,D] [G,D]2 | [G,B,] [C,G,C]2- [C,G,C]3- | [C,G,C]3 z3 |] %33

